X: 071
T: the Reveilly
B: C. & S. Thompson, "The Compleat Tutor for the Fife" c.1760 p.7 #1
S: http://imslp.org/wiki/The_Compleat_Tutor_for_the_Fife_(Anonymous)
Z: 2014 John Chambers <jc:trillian.mit.edu>
M: 2/4
L: 1/8
K: G
% - - - - - - - - - - - - - - - - - - - - - - - - -
c2 |\
B2 A2 | G2 g2 | f2 e2 | d/^c/d/e/ d=c |\
B2 A2 | G2 g2 | f2 e2 | d3 :|\
|: d |\
gd BA/G/ | e2 d2 | ce/d/ cB | A3 c |\
B2 A2 | G2 g2 | B2 cA | G3 :|
% - - - - - - - - - - - - - - - - - - - - - - - - -
